!!!!SEGMENT: pl-wtm--r-2310_troschel-wilhelm--swieta-marya.krn
!!!cenid: 18xx:2273
!!!COM: Troschel, Wilhelm
!!!COM-rismID: pe30024099
!!!CDT: 1823/08/23-1887/03/02
!!!CNT: Polish
!!!OTL: Święta Marya
!!!PDT: 1860
!!!AGN: Sacred
!!!SMS-siglum: PL-Wtm
!!!SMS-shelfmark: R 2310
!!!SMS-shelfwork: W
!!!SMS-variant:
!!!SMS-altvar:
!!!NIFC-rismSourceID: 1001114148
!!!NIFC-islandoraID: pl-wtm:30297
!!!URL-pdf-islandora: https://repozytorium.nifc.pl/islandora/object/pl-wtm%3A30297/datastream/PDF/view
!!!URL-scan: https://polish.musicsources.pl/pl/lokalizacje/galeria/rekopisy/6621 @EN{Scan on Polish Music Sources Website} @PL{Skany w portalu Dziedzictwo Muzyki Polskiej w otwartym dostępie}
!!!ONB-nifc:
!!!AIN: 1 empty 1 forte
!!!key:
**kern	**kern	**dynam	**kern	**text	**text	**text	**text	**dynam
*part2	*part2	*part2	*part1	*part1	*part1	*part1	*part1	*part1
*staff3	*staff2	*	*staff1	*staff1	*staff1	*staff1	*staff1	*
*Iforte	*Iforte	*	*Iempty	*	*	*	*	*
*I"Fortepian	*I"Fortepian	*	*I"Śpiew	*	*	*	*	*
*>[A,B,C,C,C,C,A]	*>[A,B,C,C,C,C,A]	*>[A,B,C,C,C,C,A]	*>[A,B,C,C,C,C,A]	*>[A,B,C,C,C,C,A]	*>[A,B,C,C,C,C,A]	*>[A,B,C,C,C,C,A]	*>[A,B,C,C,C,C,A]	*>[A,B,C,C,C,C,A]
*>A	*>A	*>A	*>A	*>A	*>A	*>A	*>A	*>A
*clefF4	*clefG2	*	*clefG2	*	*	*	*	*
*k[b-e-]	*k[b-e-]	*	*k[b-e-]	*	*	*	*	*
*B-:	*B-:	*	*B-:	*	*	*	*	*
*M6/8	*M6/8	*	*M6/8	*	*	*	*	*
=1	=1	=1	=1	=1	=1	=1	=1	=1
*^	*	*	*	*	*	*	*	*
!LO:TX:t=P:all\right:problem	!	!LO:TX:a:t=Spokojnie	!	!LO:TX:a:t=Allegretto.	!	!	!	!	!
!LO:TX:b:t=[segno]	!	!LO:TX:a:t=[segno]	!	!LO:TX:a:t=[segno]	!	!	!	!	!
(<8DD/L	4.BBB-\	(4.d:/ 4.f: 4.dd:	p	2.r	.	.	.	.	.
8FF/	.	.	.	.	.	.	.	.	.
8BB-/J)	.	.	.	.	.	.	.	.	.
!	!	!	!LO:HP:t=cresc&colon;	!	!	!	!	!	!
(<8DD/L	4.BBB-\	4.d:/ 4.f#X: 4.dd:	<	.	.	.	.	.	.
8FF#X/	.	.	.	.	.	.	.	.	.
8BB-/J)	.	.	.	.	.	.	.	.	.
=2	=2	=2	=2	=2	=2	=2	=2	=2	=2
(<8EE-/L	4.BBB-\	4.e-:/ 4.g: 4.dd:	.	2.r	.	.	.	.	.
8GG/	.	.	.	.	.	.	.	.	.
8BB-/J)	.	.	.	.	.	.	.	.	.
(<8EE-/L	4.BBB-\	4e-:/ 4g: 4cc:	.	.	.	.	.	.	.
8GG/	.	.	.	.	.	.	.	.	.
8BB-/J)	.	8g:\) 8cc: 8ee-:	.	.	.	.	.	.	.
=3	=3	=3	=3	=3	=3	=3	=3	=3	=3
(<8EE-/L	4.BBB-\	(4.a:\ 4.cc: 4.ee-: 4.gg:	.	2.r	.	.	.	.	.
8FF/	.	.	.	.	.	.	.	.	.
8AA/J)	.	.	.	.	.	.	.	.	.
(<8EE-/L	4.BBB-\	4a:\ 4cc: 4ee-: 4aa:	.	.	.	.	.	.	.
8FF/	.	.	.	.	.	.	.	.	.
8AA/J)	.	8a:\ 8cc: 8ee-: 8gg:	.	.	.	.	.	.	.
=4	=4	=4	=4	=4	=4	=4	=4	=4	=4
!	!	!	!	!LO:TX:a:t=Słowa [[T. Lenartowicza]] Hr Fr. Skarbka	!	!	!	!	!
(<8DD/L	4.BBB-\	4.b-:\ 4.dd: 4.gg:	.	2.r	.	.	.	.	.
8FF/	.	.	.	.	.	.	.	.	.
8BB-/J)	.	.	.	.	.	.	.	.	.
(<8DD/L	4.BBB-\	4.b-:\) 4.dd: 4.ff:	.	.	.	.	.	.	.
8FF/	.	.	.	.	.	.	.	.	.
8BB-/J)	.	.	.	.	.	.	.	.	.
!!LO:LB:g=original
=5	=5	=5	=5	=5	=5	=5	=5	=5	=5
8BB-/L	4.GG\	(4.b-:\ 4.dd: 4.bb-:	.	2.r	.	.	.	.	.
8D/	.	.	.	.	.	.	.	.	.
8G/J	.	.	.	.	.	.	.	.	.
(<8GG/L	4.EEn\	4a:\ 4cc#X: 4aa:	.	.	.	.	.	.	.
8AA/	.	.	.	.	.	.	.	.	.
8C#X/J)	.	8a:\ 8cc#: 8gg:	>	.	.	.	.	.	.
=6	=6	=6	=6	=6	=6	=6	=6	=6	=6
(<8FF/L	4.DD\	4.a:\ 4.dd: 4.ff:	.	2.r	.	.	.	.	.
8AA/	.	.	.	.	.	.	.	.	.
8D/J)	.	.	.	.	.	.	.	.	.
(<8GG/L	4.EE-\	(4g/ 4ee-	]	.	.	.	.	.	.
8C/	.	.	.	.	.	.	.	.	.
8E-/J)	.	8e-/)) 8cc	.	.	.	.	.	.	.
=7	=7	=7	=7	=7	=7	=7	=7	=7	=7
*	*	*^	*	*	*	*	*	*	*
(<8BB-/L	4.FF\	(>4.d/ 4.b-	4.ryy	.	2.r	.	.	.	.	.
8D/	.	.	.	.	.	.	.	.	.	.
8F/J)	.	.	.	.	.	.	.	.	.	.
!	!	!	!	!LO:HP:a:t=dim&colon;	!	!	!	!	!	!
(<8C/L	4.FF\	8.a/L	4.e-\	>	.	.	.	.	.	.
8E-/	.	.	.	.	.	.	.	.	.	.
.	.	16g/K	.	.	.	.	.	.	.	.
8F/J)	.	8a/J)	.	.	.	.	.	.	.	.
*v	*v	*	*	*	*	*	*	*	*	*
*	*v	*v	*	*	*	*	*	*	*
=8	=8	=8	=8	=8	=8	=8	=8	=8
!	!LO:TX:a:t=Fine.	!	!	!	!	!	!	!
8BB-\	8d/ 8b-	.	2.r	.	.	.	.	.
*>B	*>B	*>B	*>B	*>B	*>B	*>B	*>B	*>B
8r	(8B-/L 8d	.	.	.	.	.	.	.
8r	8F/J)	.	.	.	.	.	.	.
4BB-\	8r	.	.	.	.	.	.	.
.	(8B-/L 8d	.	.	.	.	.	.	.
8r	8F/J)	.	.	.	.	.	.	.
!!LO:LB:g=original
=9	=9	=9	=9	=9	=9	=9	=9	=9
*>C	*>C	*>C	*>C	*>C	*>C	*>C	*>C	*>C
4.BBB-/	8r	.	4.b-/	Nie-	Krwa-	Płyń-	Wy-	.
.	(8B-/L 8d	.	.	.	.	.	.	.
.	8F/J)	.	.	.	.	.	.	.
!LO:N:vis=4	!	!	!	!	!	!	!	!
4.BB-/	8r	.	4a/	-mo-	-we	-że	-trwaj	.
.	(8B-/L 8d	.	.	.	.	.	.	.
.	8F/J)	.	8g/	-żesz	pro-	Ster-	w mo-	.
=10	=10	=10	=10	=10	=10	=10	=10	=10
4.BBB-/	8r	.	[4.a/	łód-	-mie-	-ni-	-zo-	.
.	(8c/L 8e-	.	.	.	.	.	.	.
.	8F/J)	.	.	.	.	.	.	.
4.BB-/	8r	.	4a/]	.	.	.	.	.
.	(8c/L 8e-	.	.	.	.	.	.	.
.	8F/J)	.	8b-/	-ką	-nie	-ku	-le	.
=11	=11	=11	=11	=11	=11	=11	=11	=11
4.BBB-/	8r	.	(4dd\	do-	śmier-	płyń	i	.
.	(8A/L 8e-	.	.	.	.	.	.	.
.	8F/J)	.	8cc\)	.	.	.	.	.
4.BB-/	8r	.	4a/	-bić	-cią	a	miej	.
.	(8c/L 8e-	.	.	.	.	.	.	.
.	8F/J)	.	8f/	do	ci	bądź	na-	.
=12	=12	=12	=12	=12	=12	=12	=12	=12
4.BBB-/	8r	.	4.g/	brze-	gro-	śmia-	-dzie-	.
.	(8B-/L 8d	.	.	.	.	.	.	.
.	8F/J)	.	.	.	.	.	.	.
4.BB-/	8r	.	4f/	-gu,	-żą,	-ły	-ję	.
.	(8B-/L 8d	.	.	.	.	.	.	.
.	8F/J)	.	8r	.	.	.	.	.
!!LO:LB:g=original
=13	=13	=13	=13	=13	=13	=13	=13	=13
!	!	!	!	!	!	!	!	!LO:DY:a
!	!	!LO:HP:b=2	!	!	!	!	!	!
4.DD/	8r	<	(4f/	Wiatr	Nad	Niech	Że	<
.	(8B-/L 8f	.	.	.	.	.	.	.
.	8F/J)	.	8b-/)	.	.	.	.	.
4.D\	8r	.	4cc\	ją	łód-	cię	wie-	.
.	(8B-/L 8f	.	.	.	.	.	.	.
.	8F/J)	[[	8dd\	prze-	-ką	nie	-trzyk	[
=14	=14	=14	=14	=14	=14	=14	=14	=14
4.CC/	8r	.	4.dd\	-ci-	by-	stra-	do-	.
.	(8B-/L 8f	.	.	.	.	.	.	.
.	8G/J)	.	.	.	.	.	.	.
4.C/	8r	.	4.cc\	-wny	-stre	-szą	-bry	.
.	(8B-/L 8en	.	.	.	.	.	.	.
.	8G/J)	.	.	.	.	.	.	.
=15	=15	=15	=15	=15	=15	=15	=15	=15
!	!	!	!	!	!	!	!	!LO:DY:a
4.DD/ 4.D	8r	.	4.b-/	wstrzy-	nur-	mie-	w ża-	>
.	(8B-/L 8d	.	.	.	.	.	.	.
!	!	!LO:HP:b=2	!	!	!	!	!	!
.	8G/J)	>	.	.	.	.	.	.
4.EEn/ 4.En	8r	.	4a/	-mu-	-ty	-li-	-giel	.
.	(8G/L 8c	.	.	.	.	.	.	.
.	8B-/J)	]]	8g/	-je	się	-zny,	za-	]
=16	=16	=16	=16	=16	=16	=16	=16	=16
4.FF/	8r	.	(4.cc\	w bie-	sro-	ska-	-wie-	.
.	(8A/L 8f	.	.	.	.	.	.	.
.	8c/J)	.	.	.	.	.	.	.
4.F\	8r	.	4f/)	-gu	-żą,...	-ły,	-je,	.
.	(8A/L 8f	.	.	.	.	.	.	.
.	8c/J)	.	8r	.	.	.	.	.
!!LO:PB:g=original
=17	=17	=17	=17	=17	=17	=17	=17	=17
!	!	!	!	!	!	!	!	!LO:HP:a:t=cresc&colon; e stringendo.
4.DD-X/	8r	.	4.f/	Cze-	Niech	Niech	Łód-	<
.	(8d-X/L 8f	.	.	.	.	.	.	.
.	8A-X/J)	.	.	.	.	.	.	.
4.D-X\	8r	.	4f/	-kaj	Ster-	je	-ka	.
.	(8d-/L 8f	.	.	.	.	.	.	.
.	8A-/J)	.	8f/	Ster-	-nik	twa	do	.
=18	=18	=18	=18	=18	=18	=18	=18	=18
4.AAA-X/	8r	.	[4.a-X/	-ni-	ża-	rę-	brze-	.
.	(8c/L 8g-X	.	.	.	.	.	.	.
.	8A-X/J)	.	.	.	.	.	.	.
4.AA-X/	8r	.	4a-/]	.	.	.	.	.
.	(8c/L 8g-	.	.	.	.	.	.	.
.	8A-/J)	.	8g-X/	-ku	-gla	-ka	-gu	.
=19	=19	=19	=19	=19	=19	=19	=19	=19
4.AAA-X/	8r	.	(4g-X/	bo	je-	zrę-	za-	.
.	(8c/L 8g-X	.	.	.	.	.	.	.
.	8A-X/J)	.	8a-X/)	.	.	.	.	.
4.AA-X/	8r	.	4cc\	bu-	-szcze	-cznie	-wsze	.
.	(8e-/L 8g-	.	.	.	.	.	.	.
.	8A-/J)	.	8b-\	-rza	nie	o-	za-	.
=20	=20	=20	=20	=20	=20	=20	=20	=20
4.DD-X/	8r	.	(4.b-/	mi-	zwi-	-mi-	-wi-	.
.	(8d-X/L 8f	.	.	.	.	.	.	.
.	8A-X/J)	.	.	.	.	.	.	.
4.D-X\	8r	.	4a-X/)	ja	-ja	-ja	-ja	.
.	(8d-/L 8f	.	.	.	.	.	.	.
.	8A-/J)	.	8r	.	.	.	.	.
!!LO:LB:g=original
=21	=21	=21	=21	=21	=21	=21	=21	=21
!	!	!	!LO:TX:b:t=dolce	!	!	!	!	!
!	!LO:TX:b:t=dolce	!	!LO:TX:a:t=poco rall&colon;	!	!	!	!	!
4.CC/	8r	.	4.an/	To	Bo	To	Kie-	.
.	(8An/L 8e-	.	.	.	.	.	.	.
.	8f/J)	.	.	.	.	.	.	.
4.C/	8r	.	4g/	ci	mu	ci	-dy	.
.	(8A/L 8e-	.	.	.	.	.	.	.
.	8f/J)	.	8a/	po-	po-	po-	po-	.
=22	=22	=22	=22	=22	=22	=22	=22	=22
4.BBB-/ 4.BB-	8r	.	(4.b-/	-mo-	-mo-	-mo-	-ma-	.
.	(8B-/L 8d	.	.	.	.	.	.	.
.	8f/J)	.	.	.	.	.	.	.
4.GGG/ 4.GG	8r	.	4.d/)	-że	-że	-że	-ga	.
.	(8B-/L 8d	.	.	.	.	.	.	.
.	8g/J)	.	.	.	.	.	.	.
=23	=23	=23	=23	=23	=23	=23	=23	=23
!	!	!	!	!	!LO:SIC:v:l:s=Świę:verse1	!LO:SIC:v:l:s=Świę:verse2	!LO:SIC:v:l:s=Świę:verse3	!LO:SIC:v:l:s=Świę:verse4
4.CC/ 4.C	8r	.	4.e-/	Swię-	Swię-	Swię-	Swię-	.
.	8c/ 8e-	.	.	.	.	.	.	.
!	!LO:TX:t=P:problem=miejsce nieczytelne	!	!	!	!	!	!	!
.	8ryy	.	.	.	.	.	.	.
!	!	!	!	!	!	!	!	!LO:DY:a
4.FF/	8r	.	4d/	-ta	-ta	-ta	-ta	>
.	(8A/L 8f	.	.	.	.	.	.	.
.	8c/J) 8e-	.	8e-/	Ma-	Ma-	Ma-	Ma-	]]
=24	=24	=24	=24	=24	=24	=24	=24	=24
4.BBB-/	8r	.	(4.g/	-ry-	-ry-	-ry-	-ry-	.
.	(8B-/L 8d	.	.	.	.	.	.	.
.	8f/J)	.	.	.	.	.	.	.
4.BB-/	8r	.	4f/)	-a.	-a.	-a.	-a.	.
.	(8B-/L 8d	.	.	.	.	.	.	.
.	8f/J)	.	8r	.	.	.	.	.
!!LO:LB:g=original
=25	=25	=25	=25	=25	=25	=25	=25	=25
*	*	*	*^	*	*	*	*	*
4.AAA-X/	8r	.	4.f/	4.ryy	Cze-	Niech	Niech	Łód-	.
.	(8d-X/L 8f	.	.	.	.	.	.	.	.
.	8A-X/J)	.	.	.	.	.	.	.	.
!	!	!LO:HP:a:t=cresc&colon; e stringendo.	!	!	!	!	!	!	!LO:HP:t=cresc&colon; e stringendo.
4.AA-X/	8r	<	4a-X/	4fN\	-kaj	Ster-	je	-ka	<
.	(8d-/L 8f	.	.	.	.	.	.	.	.
.	8A-/J)	.	8dd-X/	8fN\	Ster-	-nik	twa	do	.
=26	=26	=26	=26	=26	=26	=26	=26	=26	=26
4.AAA-X/	8r	.	[4.dd-X/	[4.a-NX\	-ni-	ża-	rę-	brze-	.
.	(8e-/L 8g-X	.	.	.	.	.	.	.	.
.	8A-X/J)	.	.	.	.	.	.	.	.
4.AA-X/	8r	.	4dd-/]	4a-N\]	.	.	.	.	.
.	(8e-/L 8g-	.	.	.	.	.	.	.	.
.	8A-/J)	.	8cc/	8g-NX\	-ku	-gla	-ka	-gu	.
=27	=27	=27	=27	=27	=27	=27	=27	=27	=27
4.AAA-X/	8r	.	(4ff/	(4g-NX\	bo	je-	zrę-	za-	.
.	(8c/L 8g-X	.	.	.	.	.	.	.	.
.	8A-X/J)	.	8ee-/)	8a-NX\)	.	.	.	.	.
4.AA-X/	8r	.	(4cc/	4ccN\	bu-	-szcze	-cznie	-wsze	.
.	(8e-/L 8g-	.	.	.	.	.	.	.	.
.	8A-/J)	.	8a-X/)	8b-N\	-rza	nie	o-	za-	.
*	*	*	*v	*v	*	*	*	*	*
=28	=28	=28	=28	=28	=28	=28	=28	=28
4.DD-X/	8r	.	4.b-/	mi-	zwi-	-mi-	-wi-	.
.	(8d-X/L 8f	.	.	.	.	.	.	.
.	8A-X/J)	.	.	.	.	.	.	.
4.D-X\	8r	.	4a-X/	-ja	-ja	-ja	-ja	.
.	(8d-/L 8f	.	.	.	.	.	.	.
.	8A-/J)	.	8r	.	.	.	.	.
!!LO:LB:g=original
=29	=29	=29	=29	=29	=29	=29	=29	=29
!LO:TX:a:t=dol&colon;	!	!	!LO:TX:b:t=dolce	!	!	!	!	!
4.CC/	8r	.	4.an/	To	Bo	To	Kie-	.
.	(8An/L 8e-	.	.	.	.	.	.	.
.	8f/J)	.	.	.	.	.	.	.
!	!	!	!LO:TX:a:t=poco rall&colon;	!	!	!	!	!
4.C/	8r	.	4gn/	ci	mu	ci	-dy	.
.	(8A/L 8e-	.	.	.	.	.	.	.
.	8f/J)	.	8a/	po-	po-	po-	po-	.
=30	=30	=30	=30	=30	=30	=30	=30	=30
4.BBB-/ 4.BB-	8r	.	(4.b-\	-mo-	-mo-	-mo-	-ma-	.
.	(8B-/L 8d	.	.	.	.	.	.	.
.	8f/J)	.	.	.	.	.	.	.
4.DD/ 4.D	8r	.	4.f/)	-że	-że	-że	-ga	.
.	(8B-/L 8d	.	.	.	.	.	.	.
.	8f/J)	.	.	.	.	.	.	.
=31	=31	=31	=31	=31	=31	=31	=31	=31
!	!	!	!	!	!	!LO:SIC:v:l:s=Świę:verse2	!LO:SIC:v:l:s=Świę:verse3	!LO:SIC:v:l:s=Świę:verse4
4.FF/ 4.F	8r	.	(4.ee-\	Świę-	Swię-	Swię-	Swię-	.
.	(8A/L 8e-	.	.	.	.	.	.	.
.	8f/J)	.	.	.	.	.	.	.
!LO:TX:a:t=rit&colon;	!	!	!LO:TX:a:t=rit&colon;	!	!	!	!	!
4.FFF/ 4.FF	8r	.	4g/)	-ta	-ta	-ta	-ta	.
.	(8c/L 8e-	.	.	.	.	.	.	.
.	8f/J)	.	8a/	Ma-	Ma-	Ma-	Ma-	.
=32	=32	=32	=32	=32	=32	=32	=32	=32
4.BBB-/	8r	.	(4.cc\	-ry-	-ry-	-ry-	-ry-	.
.	(8B-/L 8d	.	.	.	.	.	.	.
.	8f/J)	.	.	.	.	.	.	.
!LO:TX:b:t=[segno]	!	!	!	!	!	!	!	!
4.BB-/	8r	.	4b-\)	-a.	-a.	-a.	-a.	.
.	(8d/L 8f	.	.	.	.	.	.	.
!	!LO:TX:a:t=[segno]	!	!	!	!	!	!	!
!	!LO:TX:b:t=Dal Segno	!	!LO:TX:a:t=[segno]	!	!	!	!	!
.	8b-/J)	.	8r	.	.	.	.	.
==	==	==	==	==	==	==	==	==
*-	*-	*-	*-	*-	*-	*-	*-	*-
!!!system-decoration: s1{s2,s3}
!!!RDF**kern: > = above
!!!RDF**kern: < = below
!!!RDF**kern: N = cue size
!!!ENC: Krzysztof Stępień
!!!END: 2021-05-26
!!!YEC: Copyright 2022 Narodowy Instytut Fryderyka Chopina (https://polishscores.org)
!!!YEM: Licence CC BY 4.0 (https://creativecommons.org/licenses/by/4.0)
